battery-off-outline.svg

<svg fill="currentColor" viewBox="0 0 24 24"><path d="M18 17.35 3.38 2.73 2.11 4 6 7.89v12.78A1.34 1.34 0 0 0 7.33 22h9.34A1.34 1.34 0 0 0 18 20.67v-.78l2.84 2.84 1.27-1.27M16 20H8V9.89l8 8M16 6v6.8l2 2V5.33A1.34 1.34 0 0 0 16.67 4H15V2H9v2H7.21l2 2Z"/></svg>

<svg  viewBox="0 0 24 24" fill="currentColor"><path  d="M18 17.35L3.38 2.73L2.11 4L6 7.89V20.67A1.34 1.34 0 0 0 7.33 22H16.67A1.34 1.34 0 0 0 18 20.67V19.89L20.84 22.73L22.11 21.46M16 20H8V9.89L16 17.89M16 6V12.8L18 14.8V5.33A1.34 1.34 0 0 0 16.67 4H15V2H9V4H7.21L9.21 6Z"/></svg>
